X: 41263
T: Tubber Fair
R: jig
M: 6/8
K: Gmajor
G2|:BGA B2d|gef ged|B2B AGA|BGF G2A|
[1BGA B2d|gef ged|B2B AGA|BGF G2A:|
[2GEG FEF|EFG B^cd|edB AGA|BGF GBd||
|:gba ged|B2d def|gfe fed|Bee e2f|
g2g faf|gfe def|gdB AGA|BGF G3:|

